X:388
T:Al Gimali
O:Israel
Z:seymour.shlien@crc.doc.ca
L:1/8
M:4/4
Q:1/4=120
K:Gm
"Gm"d3 c "Cm"e2 f2| "Gm"d2 BG AF G2| d3 c "Cm"e2 f2| "Gm"d2 BG "Dm"A4|\
"Cm"c3 B "Bb"d2 ef| "Gm"d3e dcd2| dccB BABc| d8| 
"Cm"c3 B "Bb"d2 ef| "Gm"d3e dcd2| dccB BAAG| G8|\
"Gm"g3f "Cm"gfe2| "Gm"d2 c/B/c d/e/d/c/ d2| g3 f b2 a2| g2 dc d4|
g3 f ef g2| Bcde dc d2| dc cB BA Bc| d8|\
"F"ABcB "Gm"BAAG|G6 z2|



Xiraldilla
C:Tradicional
S:Música Tradicional Asturiana, (C) Tello & Tito. Asturies, 2001.
S:http://pagina.de/MusTradAst <telloytito@asturies.org>
N:Cuartetas y seguidillas usadas en el corro, estrofas sueltas.
O:Teberga
A:Asturies
Z:DyC en Teberga
M:2/4
L:1/8
Q:1/4=120
K:Cm
GG|:GG F=E|FC FC|FC FF|
[M:3/4]
|ED C2 D2|
[M:2/4]
|ED/C/ D=B,|C2 D2|ED/C/ D=B,|
[M:3/4]
|[1 C3z GG :|[2 C2 z4||



